X: 1
T: GOLDEN WREATH -- HORNPIPE
B: Ryan's Mammoth Collection of Fiddle Tunes
R: hornpipe
M: C|
L: 1/8
Z: Contributed 20000821203135 by John Chambers John.Chambers:weema.com
K: D
uA2 \
| vdcd"4"e d"0"efd | "4"e^d"0"ef efge | dcd"4"e d"0"efd | "4"ecdB ABcA |
| dcd"4"e d"0"efd | "4"e^d"0"ef efge | fadf egc"4"e | d2f2d2 :|
|: vaug \
| fgaf gabg | efge fgaf | defd efgf | edcB ABcA |
| dcd"4"e d"0"efd | "4"e^d"0"ef efge | fadf egfe | d2f2d2 :|
